X:59
T:Dever the Dancer
M:9/8
L:1/8
Q:120
R:Slip Jig (Key of Em)
K:Emin
"Em"BEE BEF "G"~G2A | "Em"BEE BAG "D"FGA |
"Em"BEE BEF "G"~G2A |1 "D"B^cd A2G FED :|2 "D"B^cd A2G FGA |: 
"D"ded cAF "G"~G2B | ded def gfe |
"D"ded cAF "G"~G2A |1 "D"B^cd A2G FGA :|2 "D"B^cd A2G FED |]
